X: 5659
T: Bwced
R: slip jig
M: 9/8
K: Gmajor
|:c|B2 d dBG Bcd|e2 g dBG A2 c|Bdd dBG Bcd|A2 D AFd A2:|
|:c|B^AB EFE E2 c|B^AB EG/F/E AFD|B^AB EFE E2 G|FAA AFd A2:|
"& to finish"FAA AFD D3||

